svgs/thin/shield-plus.svg

<svg xmlns="http://www.w3.org/2000/svg" viewBox="0 0 512 512"><!-- Font Awesome Pro 6.0.0-alpha2 by @fontawesome - https://fontawesome.com License - https://fontawesome.com/license (Commercial License) --><path d="M344 232H264V152C264 147.578 260.406 144 256 144S248 147.578 248 152V232H168C163.594 232 160 235.578 160 240S163.594 248 168 248H248V328C248 332.422 251.594 336 256 336S264 332.422 264 328V248H344C348.406 248 352 244.422 352 240S348.406 232 344 232ZM466.5 83.68L274.5 3.672C269.625 1.641 261.344 0 256.062 0C250.75 0 242.5 1.641 237.594 3.672L45.594 83.68C27.688 91.07 16 108.574 16 127.984C16 385.157 205.164 512 255.953 512C307.975 512 496 383.813 496 127.984C496 108.574 484.312 91.07 466.5 83.68ZM255.953 496C212.107 496 32 374.012 32 127.984C32 114.992 39.732 103.41 51.748 98.449L243.715 18.453C246.707 17.215 252.822 16 256.062 16C259.246 16 265.443 17.234 268.346 18.441L460.367 98.461C472.295 103.406 480 114.996 480 127.984C480 405.588 270.923 496 255.953 496Z "></path></svg>

<svg xmlns="http://www.w3.org/2000/svg" viewBox="0 0 512 512"><!--! Font Awesome Pro 6.3.0 by @fontawesome - https://fontawesome.com License - https://fontawesome.com/license (Commercial License) Copyright 2023 Fonticons, Inc. --><path d="M344 232h-80v-80c0-4.422-3.594-8-8-8S248 147.6 248 152v80h-80C163.6 232 160 235.6 160 240s3.594 8 8 8h80v80c0 4.422 3.594 8 8 8s8-3.578 8-8v-80h80C348.4 248 352 244.4 352 240S348.4 232 344 232zM466.5 83.69l-192-80.01C269.6 1.656 261.3 0 256.1 0C250.8 0 242.5 1.656 237.6 3.688l-192 80.01C27.69 91.08 16 108.6 16 127.1C16 385.2 205.2 512 255.1 512C307.1 512 496 383.8 496 127.1C496 108.6 484.3 91.08 466.5 83.69zM255.1 496C212.1 496 32 374 32 127.1c0-12.99 7.732-24.57 19.75-29.54l191.1-79.1C246.7 17.21 252.8 16 256.1 16c3.184 0 9.381 1.234 12.28 2.441l192 80.02C472.3 103.4 480 114.1 480 127.1C480 405.6 270.9 496 255.1 496z"/></svg>
